static/assets/svg/human/humanClothes/female_pants1_stickers/female_pants1_sticker18.svg

<svg class="bottomOverlay" width="86" height="380" viewBox="202.715 584.407 86.593 380.048" preserveAspectRatio="xMidYMax" xmlns="http://www.w3.org/2000/svg"><path d="M222.943 751.751c0 13.657 19.104 15.287 31.262 14.098 12.531-1.226 14.14-6.355 15.325 3.678.557 4.714-4.812 2.408-9.195 2.452-17.69.176-24.468 5.62-36.779-5.517-10.205-9.232-9.446 1.227-5.517-8.581" stroke="#000" fill="#0062ff"/><path d="M216.201 759.719c0 15.507 19.996 16.551 34.326 16.551 3.412 0 7.867.511 13.486 0 .952-.087 2.229-.754 3.6-1.384 2.691-1.238 3.296-1.72 4.982 1.997 2.11 4.652-17.235 2.884-19.616 3.678-19.624 6.541-37.391-.324-37.391-18.39" stroke="#000" fill="#0062ff"/><path d="M213.136 771.979c1.646 0 6.51 7.546 8.581 8.582 2.825 1.412 8.864 2.12 11.034 4.291.933.932 7.729 0 9.195 0 7.346 0 15.311-3.492 20.841-3.065 11.38.879 10.83-10.218 14.712 5.517 1.278 5.181-16.103 1.076-22.068 3.065-19.449 6.483-42.295 2.177-42.295-19.003" stroke="#000" fill="#0062ff"/><path d="M234.59 755.429c-11.443-38.209-8.991 99.302 3.678 145.889 1.059 3.895-3.232-25.324 5.517.613 0 0-15.325-51.899-9.195-146.502zM177.885 511.404c-11.443-38.21-8.99 99.302 3.678 145.889 1.06 3.895-3.232-25.324 5.517.613 0 0-15.325-51.9-9.195-146.502z" stroke="#000" fill="#0062ff"/><path d="M222.534 756.015c-5.027-19.41-6.527 70.92 7.288 103.602 1.155 2.734 20.049 94.896 5.529.245 0 0-16.601-36.368-12.817-103.847z" stroke="#000" fill="#0062ff"/></svg>

<svg class="bottomOverlay" width="86" height="380" viewBox="202.715 584.407 86.5933 380.048" preserveAspectRatio="xMidYMax" xmlns="http://www.w3.org/2000/svg">  <defs id="svgEditorDefs">    <path id="svgEditorClosePathDefs" class="clothes" fill="black" style="stroke-width: 0px; stroke: none;"/>    <pattern id="pattern-0" x="0" y="0" width="20" height="20" patternUnits="userSpaceOnUse" viewBox="0 0 100 100">      <path d="M 0 0 L 50 0 L 50 100 L 0 100 Z" style="fill: black;"/>    </pattern>    <pattern patternUnits="userSpaceOnUse" width="16" height="16" patternTransform="translate(0,1584.000000615758)" id="pattern4560-0">      <g id="g4556-8" transform="translate(0,-1584.000000615758)">        <path id="rect4439-4" d="m 8,1584.000000615758 8,0 0,8 -8,8 -8,0 0,-8 z" style="color:#ffffff;clip-rule:nonzero;display:inline;overflow:visible;visibility:visible;opacity:1;isolation:auto;mix-blend-mode:normal;color-interpolation:sRGB;color-interpolation-filters:linearRGB;solid-color:#ffffff;solid-opacity:1;fill:#666666;fill-opacity:1;fill-rule:nonzero;stroke:none;stroke-width:1;stroke-linecap:round;stroke-linejoin:round;stroke-miterlimit:4.0476899147;stroke-dasharray:none;stroke-dashoffset:0;stroke-opacity:1;marker:none;color-rendering:auto;image-rendering:auto;shape-rendering:auto;text-rendering:auto;enable-background:accumulate"/>        <path id="path4444-9" d="m 16,1592.000000615758 0,8 -8,0 0,-16 -8,0 0,8 z" style="color:#ffffff;clip-rule:nonzero;display:inline;overflow:visible;visibility:visible;opacity:1;isolation:auto;mix-blend-mode:normal;color-interpolation:sRGB;color-interpolation-filters:linearRGB;solid-color:#ffffff;solid-opacity:1;fill:#999999;fill-opacity:1;fill-rule:nonzero;stroke:none;stroke-width:1;stroke-linecap:round;stroke-linejoin:round;stroke-miterlimit:4.0476899147;stroke-dasharray:none;stroke-dashoffset:0;stroke-opacity:1;marker:none;color-rendering:auto;image-rendering:auto;shape-rendering:auto;text-rendering:auto;enable-background:accumulate"/>      </g>    </pattern>  </defs>  <path d="M 222.943 751.751 C 222.943 765.408 242.047 767.038 254.205 765.849 C 266.736 764.623 268.345 759.494 269.53 769.527 C 270.087 774.241 264.718 771.935 260.335 771.979 C 242.645 772.155 235.867 777.599 223.556 766.462 C 213.351 757.23 214.11 767.689 218.039 757.881" style="stroke: rgb(0, 0, 0); fill: rgb(0, 98, 255);"/>  <path d="M 216.201 759.719 C 216.201 775.226 236.197 776.27 250.527 776.27 C 253.939 776.27 258.394 776.781 264.013 776.27 C 264.965 776.183 266.242 775.516 267.613 774.886 C 270.304 773.648 270.909 773.166 272.595 776.883 C 274.705 781.535 255.36 779.767 252.979 780.561 C 233.355 787.102 215.588 780.237 215.588 762.171" style="stroke: rgb(0, 0, 0); fill: rgb(0, 98, 255);"/>  <path d="M 213.136 771.979 C 214.782 771.979 219.646 779.525 221.717 780.561 C 224.542 781.973 230.581 782.681 232.751 784.852 C 233.684 785.784 240.48 784.852 241.946 784.852 C 249.292 784.852 257.257 781.36 262.787 781.787 C 274.167 782.666 273.617 771.569 277.499 787.304 C 278.777 792.485 261.396 788.38 255.431 790.369 C 235.982 796.852 213.136 792.546 213.136 771.366" style="stroke: rgb(0, 0, 0); fill: rgb(0, 98, 255);"/>  <path style="stroke: rgb(0, 0, 0); fill: rgb(0, 98, 255);" d="M 234.59 755.429 C 223.147 717.22 225.599 854.731 238.268 901.318 C 239.327 905.213 235.036 875.994 243.785 901.931 C 243.785 901.931 228.46 850.032 234.59 755.429 Z"/>  <path style="stroke: rgb(0, 0, 0); fill: rgb(0, 98, 255);" d="M 234.59 755.429 C 223.147 717.22 225.599 854.731 238.268 901.318 C 239.327 905.213 235.036 875.994 243.785 901.931 C 243.785 901.931 228.46 850.032 234.59 755.429 Z" transform="matrix(1, 0, 0, 1, -56.70465921424467, -244.025429692932)"/>  <path style="stroke: rgb(0, 0, 0); fill: rgb(0, 98, 255);" d="M 224.265 755.953 C 219.917 736.379 215.274 826.602 227.943 859.746 C 229.002 862.518 244.677 955.282 233.46 860.183 C 233.46 860.183 218.135 823.259 224.265 755.953 Z" transform="matrix(0.999394, -0.034804, 0.034804, 0.999394, -27.905541, 8.325587)"/></svg>
